!!!!SEGMENT: pl-kk--kk-i-636--003-008_anonim--in-sabbato-sancto-responsorium-5tum.krn
!!!cenid: 18xx:4554
!!!COM: Anonim
!!!COM-rismID: pe30004985
!!!CDT:
!!!CNT:
!!!OPR: In Sabbato Sancto
!!!OTL: Responsorium 5tum
!!!OMV: 008
!!!PDT:
!!!AGN: Sacred
!!!YEC: Copyright 2022 Narodowy Instytut Fryderyka Chopina (https://polishscores.org)
!!!YEM: License CC-BY-4.0 (https://creativecommons.org/licenses/by/4.0)
!!!SMS-siglum: PL-Kk
!!!SMS-shelfmark: Kk.I.636
!!!SMS-variant:
!!!SMS-altvar:
!!!SMS-shelfwork: 003-008 M
!!!NIFC-rismSourceID: 1001216440
!!!NIFC-rismChildID: 1001216933
!!!NIFC-islandoraID: pl-kk:40786
!!!URL-pdf-islandora: https://repozytorium.nifc.pl/islandora/object/pl-kk%3A40786/datastream/PDF/view
!!!URL-scan: https://polish.musicsources.pl/pl/lokalizacje/galeria/rekopisy/7271/1 @EN{Scan on Polish Music Sources Website} @PL{Skany w portalu Dziedzictwo Muzyki Polskiej w otwartym dostępie}
!!!IIIF:
!!!ONB-nifc: UWAGA: Lamentacje i Responsoria In Sabbato Sancto na skanach: S – 15-20, A – 37-42, T – 60-66, B - 86-92. Każda Lamentacja i Responsorium to oddzielne pliki.
!!!AIN: 1 alto 1 bass 1 soprn 1 tenor
!!!key:
**kern	**text	**kern	**text	**kern	**text	**kern	**text
*part4	*part4	*part3	*part3	*part2	*part2	*part1	*part1
*staff4	*staff4	*staff3	*staff3	*staff2	*staff2	*staff1	*staff1
*I"Basso.	*	*I"Tenore.	*	*I"Alto.	*	*I"Soprano.	*
*I'B	*	*I'T	*	*I'A	*	*I'S	*
*Ibass	*	*Itenor	*	*Ialto	*	*Isoprn	*
*ICvox	*	*ICvox	*	*ICvox	*	*ICvox	*
*clefF4	*	*clefC4	*	*clefC3	*	*clefC1	*
*k[b-e-a-]	*	*k[b-e-a-]	*	*k[b-e-a-]	*	*k[b-e-a-]	*
*E-:	*	*E-:	*	*E-:	*	*E-:	*
*M4/4	*	*M4/4	*	*M4/4	*	*M4/4	*
*met(c)	*	*met(c)	*	*met(c)	*	*met(c)	*
=1	=1	=1	=1	=1	=1	=1	=1
!	!	!LO:TX:t=P:problem:transkrypcja przed korektą [dopisane piana (dyn.)]	!	!	!	!	!
*2\right	*	*2\right	*	*2\right	*	*2\right	*
2E-\	O	2e-\	O	2g\	O	2b-\	O
2A-\	vos	2e-\	vos	2a-\	vos	2cc\	vos
=2	=2	=2	=2	=2	=2	=2	=2
1E-	om-	1e-	om-	4a-\	om-	1b-	om-
.	.	.	.	8g\L	.	.	.
.	.	.	.	8f\J	.	.	.
.	.	.	.	2g\	.	.	.
!	!	!	!	!LO:LB:g=original	!	!LO:LB:g=original	!
=3	=3	=3	=3	=3	=3	=3	=3
1BB-	-nes,	1d	-nes,	1f	-nes,	1b-	-nes
!LO:LB:g=original	!	!LO:LB:g=original	!	!	!	!	!
=4	=4	=4	=4	=4	=4	=4	=4
!LO:TX:a:t=4.	!	!LO:TX:a:t=4	!	!	!	!	!
00r	.	00r	.	2r	.	2b-\	vos
.	.	.	.	2e-\	vos	4g/	om-
.	.	.	.	.	.	4e-/	-nes
=5	=5	=5	=5	=5	=5	=5	=5
.	.	.	.	4d\	om-	4.b-\	qui
.	.	.	.	4B-\	-nes	.	.
.	.	.	.	.	.	8b-\	tran-
.	.	.	.	4.f\	qui	8a-\L	-si-
.	.	.	.	.	.	8g\J	.
.	.	.	.	.	.	4f/	-tis
.	.	.	.	8f\	tran-	.	.
=6	=6	=6	=6	=6	=6	=6	=6
.	.	.	.	8e-\L	-si-	2.cc\	per
.	.	.	.	8d\J	.	.	.
.	.	.	.	4c\	-tis	.	.
.	.	.	.	2g\	per	.	.
.	.	.	.	.	.	4b-\	.
!	!	!	!	!	!	!LO:LB:g=original	!
=7	=7	=7	=7	=7	=7	=7	=7
.	.	.	.	4g\	.	2a-\	vi-
.	.	.	.	2f\	vi-	.	.
.	.	.	.	.	.	2g\	.
.	.	.	.	4e-\	.	.	.
!	!	!	!	!LO:LB:g=original	!	!	!
=8	=8	=8	=8	=8	=8	=8	=8
2r	.	2B-\	vos	2d\	-am,	2f/	-am
2E-\	vos	4G/	om-	2r	.	4r	.
.	.	4E-/	-nes	.	.	4g/	vos
=9	=9	=9	=9	=9	=9	=9	=9
4D/	om-	4.B-\	qui	4r	.	4.f/	om-
4BB-/	-nes	.	.	4d\	vos	.	.
.	.	8B-\	tran-	.	.	8g/	.
4.F\	qui	8A-/L	-si-	4.c\	om-	2a-\	.
.	.	8G/J	.	.	.	.	.
.	.	4F/	.	.	.	.	.
8F\	tran-	.	.	8d\	.	.	.
=10	=10	=10	=10	=10	=10	=10	=10
8E-\L	-si-	2.c\	-tis	2e-\	.	4g\	-nes
8D\J	.	.	.	.	.	.	.
4C/	-tis	.	.	.	.	4.g\	qui
[2G\	per	.	.	2d\	-nes	.	.
.	.	.	.	.	.	8a-\	.
.	.	4B-\	per	.	.	8b-\L	tran-
.	.	.	.	.	.	8g\J	.
!	!	!	!	!	!	!LO:LB:g=original	!
=11	=11	=11	=11	=11	=11	=11	=11
4G\]	.	2A-\	vi-	4.c\	qui	2cc\	-si-
2F\	vi-	.	.	.	.	.	.
.	.	.	.	8d\	tran-	.	.
.	.	4G/	-am	8e-\L	-si-	2b-\	-tis
.	.	.	.	8f\	.	.	.
4E-\	.	4B-\	per	8g\	.	.	.
.	.	.	.	8e-\J	.	.	.
!LO:LB:g=original	!	!LO:LB:g=original	!	!	!	!	!
=12	=12	=12	=12	=12	=12	=12	=12
4D/	-am	1B-	vi-	4f\	-tis	4b-\	.
4BB-/	per	.	.	4d\	per	4a-\	per
2E-\	vi-	.	.	2e-\	vi-	2g\	vi-
=13	=13	=13	=13	=13	=13	=13	=13
4BB-/	-am,	4B-\	-am	2d\	-am,	2f/	-am,
4B-\	at-	4d\	at-	.	.	.	.
!	!	!	!	!LO:TX:b:i:t=V.S.	!	!	!
[2B-\	-ten-	2d\	-ten-	2r	.	4r	.
.	.	.	.	.	.	4b-\	at-
!	!	!	!	!LO:PB:g=original	!	!	!
=14	=14	=14	=14	=14	=14	=14	=14
4B-\]	.	4.e-\	.	4r	.	2cc\	-ten-
2A-\	.	.	.	4d\	at-	.	.
.	.	16d\LL	.	.	.	.	.
.	.	16c\JJ	.	.	.	.	.
.	.	8d\L	.	4e-\	-ten-	2b-\	.
.	.	8B-\J	.	.	.	.	.
4G\	.	[4e-\	.	4f\	.	.	.
=15	=15	=15	=15	=15	=15	=15	=15
2.F\	.	4e-\]	.	4c\	.	2.a-\	.
.	.	8d\L	.	8d\L	.	.	.
.	.	8c\J	.	8e-\J	.	.	.
.	.	4.d\	.	4.f\	.	.	.
4F\	-di-	.	.	.	.	4a-\	-di-
.	.	8d\	-di-	8f\	-di-	.	.
!	!	!	!	!	!	!LO:LB:g=original	!
=16	=16	=16	=16	=16	=16	=16	=16
2E-\	-te	2e-\	-te,	4B-/	-te,	4g\	-te
.	.	.	.	4r	.	2cc\	et
4D\	et	2r	.	2r	.	.	.
4G\	vi-	.	.	.	.	4bn\	vi-
!LO:LB:g=original	!	!LO:LB:g=original	!	!	!	!	!
=17	=17	=17	=17	=17	=17	=17	=17
8.E-\L	-de-	4G/	et	2r	.	4.ee-\	-de-
16D\Jk	.	.	.	.	.	.	.
4C/	-te	4c\	vi-	.	.	.	.
.	.	.	.	.	.	8dd\	.
4r	.	8.A-/L	-de-	4r	.	2cc\	.
.	.	16G/Jk	.	.	.	.	.
4A-\	vi-	4F/	-te	[4f\	et	.	.
!	!	!	!	!LO:LB:g=original	!	!	!
=18	=18	=18	=18	=18	=18	=18	=18
2G\	-de-	4r	.	4f\]	.	2b-\	.
.	.	4G/	vi-	4en\	vi-	.	.
2F\	.	2c\	-de-	2f\	-de-	8b-\L	.
.	.	.	.	.	.	16a-\L	.
.	.	.	.	.	.	16g\JJ	.
.	.	.	.	.	.	4a-\	.
=19	=19	=19	=19	=19	=19	=19	=19
2C/	-te,	4c\	-te	2en\	-te	4g\	-te,
.	.	4r	.	.	.	2cc\	si
2r	.	2d-X\	si	4r	.	.	.
.	.	.	.	4f\	si	4b-\	est
!	!	!	!	!	!	!LO:LB:original.pl	!
=20	=20	=20	=20	=20	=20	=20	=20
!LO:TX:a:t=4.	!	!	!	!	!	!	!
00r	.	2.c\	est	4f\	m	4a-\	do-
.	.	.	.	4en\	est	4g\	-lor
.	.	.	.	2a-\	do-	4.f/	si-
.	.	4Bn\	.	.	.	.	.
.	.	.	.	.	.	8f/	-mi-
=21	=21	=21	=21	=21	=21	=21	=21
.	.	4c\	do-	2g\	-lor,	2en/	-lis
.	.	4B-X\	-lor	.	.	.	.
!	!	!LO:LB:g=original	!	!	!	!	!
.	.	4.A-\	si-	4r	.	4f/	si-
.	.	.	.	4f\	si-	4cc\	-cut
.	.	8A-\	-mi-	.	.	.	.
=22	=22	=22	=22	=22	=22	=22	=22
.	.	2G/	-lis	4f\	.	4.b-\	do-
.	.	.	.	4en\	-cut	.	.
.	.	.	.	.	.	16a-\LL	.
.	.	.	.	.	.	16g\JJ	.
.	.	4F/	si-	4f\	do-	4a-\	.
.	.	4G/	-cut	8e-X\L	-lor	4b-\	-lor
.	.	.	.	8d\J	.	.	.
!	!	!	!	!LO:LB:g=original	!	!LO:LB:g=original	!
=23	=23	=23	=23	=23	=23	=23	=23
.	.	4A-/	do-	4c\	me-	2cc\	me-
.	.	4F/	-lor	4f\	.	.	.
.	.	2G/	me-	4d\	-us	2bn\	-us,
.	.	.	.	4g\	si	.	.
=24	=24	=24	=24	=24	=24	=24	=24
!	!	!	!	!	!	!LO:TX:a:t=2	!
2A-\	si	4C/	-us,	4g\	.	0r	.
.	.	2c\	si	4f\	est	.	.
2G\	est	.	.	4e-\	do-	.	.
.	.	4Bn\	est	4d\	-lor	.	.
=25	=25	=25	=25	=25	=25	=25	=25
4G\	.	2e-\	do-	4.c\	si-	.	.
4F#X\	do-	.	.	.	.	.	.
.	.	.	.	8c\	-mi-	.	.
4G\	.	2d\	-lor	2Bn/	-lis	.	.
4Fn\	-lor	.	.	.	.	.	.
!LO:LB:g=original	!	!LO:LB:g=original	!	!	!	!	!
=26	=26	=26	=26	=26	=26	=26	=26
4.E-\	si-	4.c\	si-	4c\	si-	4r	.
.	.	.	.	4g\	-cut	2cc\	si-
8E-\	-mi-	8c\	-mi-	.	.	.	.
2D\	-lis	4F/	-lis	4.f\	do-	.	.
.	.	4r	.	.	.	4bn\	-cut
.	.	.	.	16e-\LL	.	.	.
.	.	.	.	16d\JJ	.	.	.
!	!	!	!	!LO:LB:g=original	!	!	!
=27	=27	=27	=27	=27	=27	=27	=27
4C\	si-	4r	.	4e-\	.	4cc\	do-
4D\	-cut	4.B-\	si-	4f\	-lor	8b-X\L	.
.	.	.	.	.	.	8a-\J	.
4E-\	do-	.	.	2g\	me-	8g/L	.
.	.	8G/	-cut	.	.	8e-/J	.
4C\	-lor	[4c\	do-	.	.	[4ee-\	.
!	!	!	!	!	!	!LO:LB:g=original	!
=28	=28	=28	=28	=28	=28	=28	=28
2F\	me-	8c\]	.	2a-\	.	8ee-\L]	.
.	.	8B-\	-lor	.	.	16dd\L	-lor
.	.	.	.	.	.	16cc\JJ	.
.	.	4A-\	me-	.	.	4dd\	me-
4E-\	-us,	4B-\	-us,	4g\	-us,	4ee-\	-us,
4E-\	vi-	4e-\	vi-	4g\	vi-	4r	.
=29	=29	=29	=29	=29	=29	=29	=29
1B-	-de-	8.d\L	-de-	8.f\L	-de-	4r	.
.	.	16c\Jk	.	16e-\Jk	.	.	.
.	.	4B-\	-te	4d\	-te	4b-\	vi-
!	!	!LO:LB:g=original	!	!	!	!	!
.	.	4r	.	4r	.	8.g/L	-de-
.	.	.	.	.	.	16f/Jk	.
.	.	4e-\	vi-	4g\	vi-	4e-/	-te,
=30	=30	=30	=30	=30	=30	=30	=30
4B-\	.	8.d\L	-de-	8.f\L	-de-	4r	.
.	.	16c\Jk	.	16e-\Jk	.	.	.
4BB-/	-te,	4B-\	-te	4d\	-te	2b-\	si
2c\	si	2r	.	4r	.	.	.
.	.	.	.	4e-\	si	4a-\	est
!LO:LB:g=original	!	!	!	!LO:LB:g=original	!	!LO:LB:g=original	!
=31	=31	=31	=31	=31	=31	=31	=31
!	!	!LO:TX:a:t=1	!	!	!	!	!
2.B-\	est	1r	.	4e-\	.	4g/	do-
.	.	.	.	4d\	est	4f/	-lor
.	.	.	.	2g\	do-	4.e-/	si-
4An\	.	.	.	.	.	.	.
.	.	.	.	.	.	8e-/	-mi-
=32	=32	=32	=32	=32	=32	=32	=32
4B-\	do-	2r	.	2f\	-lor	2d/	-lis
4A-X\	-lor	.	.	.	.	.	.
8.G\	si-	4r	.	2r	.	4e-/	si-
16F\	-mi-	.	.	.	.	.	.
4E-\	-lis,	4e-\	si	.	.	4g/	-cut
=33	=33	=33	=33	=33	=33	=33	=33
!LO:TX:a:t=2	!	!	!	!	!	!	!
0r	.	4e-\	.	2f\	si	2.a-\	do-
.	.	4d-X\	est	.	.	.	.
.	.	4c\	do-	2e-\	est	.	.
.	.	4B-\	-lor	.	.	4g\	-lor
!	!	!LO:LB:g=original	!	!	!	!	!
=34	=34	=34	=34	=34	=34	=34	=34
.	.	4.A-\	si-	4e-\	.	2cc\	me-
.	.	.	.	4d\	do-	.	.
.	.	8A-\	-mi-	.	.	.	.
.	.	2G/	-lis	4e-\	.	2b-\	-us,
.	.	.	.	4d-X\	-lor	.	.
!	!	!	!	!LO:LB:g=original	!	!LO:LB:g=original	!
=35	=35	=35	=35	=35	=35	=35	=35
4r	.	2c\	do-	8.c/	si-	2r	.
.	.	.	.	16B-/	-mi-	.	.
2A-\	do-	.	.	4A-/	-lis	.	.
.	.	2B-\	-lor	2e-\	do-	4r	.
4G\	-lor	.	.	.	.	[4b-\	do-
=36	=36	=36	=36	=36	=36	=36	=36
2.c\	si-	2.e-\	si-	4e-\	.	4b-\]	.
.	.	.	.	4c\	-lor	8an\L	-lor
.	.	.	.	.	.	8g\J	.
.	.	.	.	4.e-\	si-	4.a\	si-
4c\	-mi-	4e-\	-mi-	.	.	.	.
.	.	.	.	8e-\	-mi-	8a\	-mi-
!LO:LB:g=original	!	!	!	!	!	!	!
=37	=37	=37	=37	=37	=37	=37	=37
2B-\	-lis,	4d\	-lis	2f\	-lis	2b-\	-lis
.	.	2B-\	si-	.	.	.	.
4G\	si-	.	.	4.g\	si-	2ee-\	si-
4E-\	-cut	4G/	-cut	.	.	.	.
.	.	.	.	8f\	.	.	.
!	!	!LO:LB:g=original	!	!	!	!	!
=38	=38	=38	=38	=38	=38	=38	=38
2A-\	do-	2A-\	do-	4e-\	.	2cc\	-cut
.	.	.	.	4c\	-cut	.	.
2G\	-lor	2B-\	-lor	2e-\	do-	[2b-\	do-
!	!	!	!	!LO:LB:g=original	!	!LO:LB:g=original	!
=39	=39	=39	=39	=39	=39	=39	=39
1A-	me-	1c	me-	4e-\	.	4b-\]	.
.	.	.	.	4e-\	-lor	8a-\L	lor
.	.	.	.	.	.	8g\J	.
.	.	.	.	2e-\	me-	2a-\	me-
=40	=40	=40	=40	=40	=40	=40	=40
!	!	!LO:TX:b:t=Seq Responsorium 6um.	!	!	!	!LO:TX:b:t=Seq Responsorium 6m.	!
1E-	-us.	1B-	-us.	1e-	-us.	1g	-us.
==	==	==	==	==	==	==	==
*-	*-	*-	*-	*-	*-	*-	*-
!!!system-decoration: [(s1,s2,s3,s4)]
!!!ENC: Filip Voros
!!!END: 2023-11-19
!!!EED: Leszek Kubiak
!!!EEV: 2024-06-13
